X:1
T:W Grocie Kr贸la G贸r
T:W Grocie Kr贸la G贸r
T:E. Grieg
C:E. Grieg
L:1/8
M:4/4
K:C
V:1 bass nm="Piano" snm="Pno."
V:1
"^Alla marchia e molto marcato""_pizz."!pp! !fermata!E8 | %1
"_sempre staccato e pp" .A,,2 .E,2 .A,,2 .E,2 | .A,,2 .E,2 .A,,2 .E,2 | .A,,2 .E,2 .A,,2 .E,2 | %4
"^simile\n" C,2 G,2 C,2 G,2 | A,,2 E,2 A,,2 E,2 | A,,2 E,2 A,,2 E,2 | A,,2 E,2 A,,2 E,2 | %8
 C,2 G,2 C,2 G,2 | E,2 B,2 E,2 B,2 | C,2 ^G,2 E,2 B,2 | E,2 B,2 E,2 B,2 | C,2 ^G,2 E,2 B,2 | %13
 E,2 B,2 E,2 B,2 | C,2 ^G,2 E,2 B,2 | E,2 B,2 E,2 B,2 | C,2 ^G,2 E,2 B,2 | A,,2 E,2 A,,2 E,2 | %18
 A,,2 E,2 A,,2 E,2 | A,,2 E,2 A,,2 E,2 | C,2 G,2 C,2 G,2 | A,,2 E,2 A,,2 E,2 | A,,2 E,2 A,,2 E,2 | %23
 A,,2 A,2 G,2 F,2 | .E,2 .D,2 .C,2 .B,,2 |"_arco"!p! .A,,2 (E,/^D,/E,) .A,,2 (E,/D,/E,) | %26
 .A,,2 (E,/^D,/E,) .A,,2 (E,/D,/E,) | .A,,2 (E,/^D,/E,) .A,,2 (E,/D,/E,) | %28
 .C,2 (G,/^F,/G,) .C,2 (G,/F,/G,) | .A,,2 (E,/^D,/E,) .A,,2 (E,/D,/E,) | %30
 .A,,2 (E,/^D,/E,) .A,,2 (E,/D,/E,) | .A,,2 (E,/^D,/E,) .A,,2 (E,/D,/E,) | %32
 .C,2 (G,/^F,/G,) .C,2 (G,/F,/G,) | .E,2 (B,/^A,/B,) .E,2 (B,/A,/B,) | %34
 .C,2 (C/B,/C) .E,2 (B,/^A,/B,) | .E,2 (B,/^A,/B,) .E,2 (B,/A,/B,) | %36
 .C,2 (C/B,/C) .E,2 (B,/^A,/B,) | .E,2 (B,/^A,/B,) .E,2 (B,/A,/B,) | %38
 .C,2 (C/B,/C) .E,2 (B,/^A,/B,) | .E,2 (B,/^A,/B,) .E,2 (B,/A,/B,) | %40
 .C,2 (C/B,/C) .E,2 (B,/^A,/B,) |"_sempre cresc."!mf! (3A,,^D,E, (3CD,E, (3A,,D,E, (3CD,E, | %42
 (3A,,^D,E, (3B,D,E, (3A,,D,E, (3_B,D,E, | (3A,,^D,E, (3CD,E, (3A,,D,E, (3CD,E, | %44
 (3C,^F,G, (3EF,G, (3C,F,G, (3EF,G, | (3A,,^D,E, (3CD,E, (3A,,D,E, (3CD,E, | %46
 (3A,,^D,E, (3B,D,E, (3A,,D,E, (3_B,D,E, | (3A,,^D,E, .A,2 .=G,2 .F,2 | %48
 .E,2 !>!D,2 !>!C,2 !>!B,,2 ||[M:2/2]!ff! !>!A,.G,.F,.E, !>!A,.G,.F,.E, | %50
 !>!A,.G,.F,.E, !>!A,.G,.F,.E, |"_simile" A,G,F,E, A,G,F,E, | CB,A,G, CB,A,G, | A,G,F,E, A,G,F,E, | %54
 A,G,F,E, A,G,F,E, | A,G,F,E, A,G,F,E, | CB,A,G, CB,A,G, |"_sempre accelerando" EDCB, EDCB, | %58
 CB,CD EDCB, | EDCB, EDCB, | CB,CD EDCB, | E^D^CB, EDCB, | ^CB,!>!C^D EDCB, | E^D^CB, EDCB, | %64
 ^CB,C^D EDCB, | A,G,F,E, A,G,F,E, | A,G,F,E, A,G,F,E, | A,G,F,E, A,G,F,E, | CB,A,G, CB,A,G, | %69
 A,G,F,E, A,G,F,E, | A,G,F,E, A,G,F,E, | A,G,F,E, A,G,F,E, | A,G,F,E, A,G,F,E, | A,2 .C2 z4 | %74
 A,2 .C2 z4 | !>!F,2 A,2 !>!E,2 A,2 | !>!E,2 ^G,2 !>!A,,2 A,2 | A,2 .C2 z4 | A,2 .C2 z4 | %79
 !>!F,2 A,2 !>!E,2 A,2 | !>!E,2 B,2 !>!A,,2 A,2 | A,2 .C2 z4 | A,2 .C2 z4 | %83
!pp!!<(! E,2 .C2 .C2 .C2 | .C2 .C2 .C2 .C2!<)! |!ff! z4!p! !//!A,,4 | !//!A,,8 | %87
!ff! A,,2 z2"_pizz." !arpeggio![A,,C,E,A,]2 z2 |] %88

